fs/reading_list_28_regular.svg

<svg viewBox="0 0 28 28" fill="none" xmlns="http://www.w3.org/2000/svg" height="1em" width="1em">
  <path d="M3.50281 7.50982C3.50281 6.41709 4.38865 5.53125 5.48138 5.53125C6.16775 5.53125 6.77294 5.88011 7.12891 6.41367C7.35879 6.75824 7.82448 6.85121 8.16905 6.62133C8.51361 6.39145 8.60659 5.92576 8.3767 5.58119C7.75434 4.64835 6.69008 4.03125 5.48138 4.03125C3.56022 4.03125 2.00281 5.58866 2.00281 7.50982C2.00281 9.41868 3.54033 10.9684 5.4445 10.9882C5.48821 10.9961 5.53323 11.0003 5.57922 11.0003H21.2506C21.6648 11.0003 22.0006 10.6645 22.0006 10.2503C22.0006 9.83606 21.6648 9.50027 21.2506 9.50027H5.61504C5.57167 9.49247 5.527 9.4884 5.48138 9.4884C4.38865 9.4884 3.50281 8.60256 3.50281 7.50982ZM11.7484 6.00027C11.3342 6.00027 10.9984 6.33606 10.9984 6.75027C10.9984 7.16449 11.3342 7.50027 11.7484 7.50027H25.2484C25.6626 7.50027 25.9984 7.16449 25.9984 6.75027C25.9984 6.33606 25.6626 6.00027 25.2484 6.00027H11.7484ZM6.74841 13.2503C6.3342 13.2503 5.99841 13.5861 5.99841 14.0003C5.99841 14.4145 6.3342 14.7503 6.74841 14.7503H25.2484C25.6626 14.7503 25.9984 14.4145 25.9984 14.0003C25.9984 13.5861 25.6626 13.2503 25.2484 13.2503H6.74841ZM1.99609 17.7503C1.99609 17.3361 2.33188 17.0003 2.74609 17.0003H21.2461C21.6603 17.0003 21.9961 17.3361 21.9961 17.7503C21.9961 18.1645 21.6603 18.5003 21.2461 18.5003H2.74609C2.33188 18.5003 1.99609 18.1645 1.99609 17.7503ZM6.74377 20.5003C6.32956 20.5003 5.99377 20.8361 5.99377 21.2503C5.99377 21.6645 6.32956 22.0003 6.74377 22.0003H25.2438C25.658 22.0003 25.9938 21.6645 25.9938 21.2503C25.9938 20.8361 25.658 20.5003 25.2438 20.5003H6.74377Z" fill="#212121"/>
</svg>

<svg viewBox="0 0 28 28" fill="none" xmlns="http://www.w3.org/2000/svg" height="1em" width="1em">
  <path d="M3.503 7.51a1.979 1.979 0 0 1 3.626-1.096.75.75 0 1 0 1.248-.833 3.479 3.479 0 1 0-2.932 5.407.757.757 0 0 0 .134.012h15.672a.75.75 0 0 0 0-1.5H5.615a.755.755 0 0 0-.134-.012A1.979 1.979 0 0 1 3.503 7.51ZM11.748 6a.75.75 0 0 0 0 1.5h13.5a.75.75 0 0 0 0-1.5h-13.5Zm-5 7.25a.75.75 0 0 0 0 1.5h18.5a.75.75 0 0 0 0-1.5h-18.5Zm-4.752 4.5a.75.75 0 0 1 .75-.75h18.5a.75.75 0 0 1 0 1.5h-18.5a.75.75 0 0 1-.75-.75Zm4.748 2.75a.75.75 0 0 0 0 1.5h18.5a.75.75 0 0 0 0-1.5h-18.5Z" fill="#212121"/>
</svg>
